X: 1031
T: The Top of Cork Road
R:double jig
B:O'Neill's 1031
Z:Transcribed by henrik.norbeck@mailbox.swipnet.se
M:6/8
L:1/8
K:D
(f/e/)|dAF DFA|Bed cBA|dcd efg|aed cBA|
dAF DFA|Bed cBA|dcd efg|fdd d2:|
g|fdf fga|ecd efg|dcd fed|cAA A2 c|
BGB Bcd|AFA DFA|dcd efg|fdd d2:|


